packages/core/src/svgs/xwg.svg

<svg width="24" height="24" viewBox="0 0 24 24" fill="none" xmlns="http://www.w3.org/2000/svg">
<g clip-path="url(#clip0_31_21067)">
<path d="M0 0H24V24H0V0Z" fill="url(#paint0_linear_31_21067)"/>
<path d="M4.71436 6.93848C4.71436 6.93848 5.07436 7.76991 5.38293 9.08133L5.80293 7.94562L4.71436 6.93848Z" fill="#59438F"/>
<path d="M5.80281 7.9458L5.38281 9.07723C5.61853 10.0844 5.80281 11.3787 5.76853 12.8058L6.4971 10.6844C6.44567 10.2729 6.39853 9.8358 6.32567 9.37723L6.79281 9.82294L7.04138 9.10294L5.80281 7.9458Z" fill="#80478F"/>
<path d="M7.33715 11.34C7.33715 11.34 7.81715 14.1 6.66858 16.7143C6.66858 16.7143 6.80572 16.6629 7.06286 16.5857L8.42572 12.3857C8.03488 12.0675 7.6708 11.7178 7.33715 11.34ZM7.02858 9.07715L6.78001 9.81001L8.68286 11.5886L8.93144 10.83L7.02858 9.07715ZM4.97144 16.6757C4.97144 16.6757 7.12715 16.5043 6.48429 10.6714L5.75572 12.7971C5.71286 14.04 5.49429 15.36 4.97572 16.6757H4.97144Z" fill="#D42C78"/>
<path d="M10.9113 10.7057L10.427 11.34C10.427 11.34 10.5899 11.5286 10.8599 11.8029L11.057 10.8686C11.0052 10.8173 10.9565 10.7629 10.9113 10.7057ZM11.4299 9.20143L11.8027 7.46143L8.96989 10.8686L8.93132 10.83L8.68274 11.5886L8.96989 11.85L11.4299 9.20143ZM7.99274 15.4843C7.99274 15.4843 8.31417 14.2243 8.2156 13.1829L10.1013 14.3743C10.1013 14.3743 10.1913 14.3271 10.3413 14.2114L10.6242 12.8829C10.4656 13.0114 10.3027 13.1443 10.1185 13.2686C10.1185 13.2686 9.38989 13.1314 8.4256 12.3857L7.06274 16.5857C8.00536 16.3031 8.97025 16.101 9.94703 15.9814L10.1656 14.9829C9.42812 15.0865 8.70108 15.2543 7.99274 15.4843Z" fill="#DEB343"/>
<path d="M11.9142 8.67857L13.517 10.4571L13.7313 9.48857L11.8113 7.46143H11.7985L11.4299 9.20143L11.9099 8.67857H11.9142ZM12.8613 13.5686L13.0327 12.7586C12.8742 12.6343 12.6899 12.4714 12.4756 12.3C12.7499 12.0129 13.0499 11.6786 13.3456 11.3143V11.2929L12.8399 10.6714C12.8399 10.6714 12.5056 11.1171 11.8885 11.7429C11.6053 11.4616 11.3281 11.1743 11.057 10.8814L10.8599 11.8114L11.3313 12.2829C11.117 12.4843 10.8727 12.6857 10.6242 12.8957L10.3413 14.2243C10.6413 14.0143 11.2199 13.5686 11.9485 12.8443C12.2458 13.0943 12.5503 13.3358 12.8613 13.5686ZM10.1656 14.9743L9.94702 15.9686C10.6627 15.87 11.4899 15.7971 12.3813 15.78L12.5956 14.7986C11.8242 14.7986 11.0099 14.8457 10.1656 14.97V14.9743Z" fill="#81BA5A"/>
<path d="M14.1858 13.4573C14.1858 13.4573 13.8301 13.3802 13.0372 12.7588L12.8658 13.5688C13.3458 13.9116 13.8515 14.2245 14.3358 14.4131C14.3358 14.4131 14.7943 13.6931 15.5486 12.9345L15.7586 11.8245C15.2358 12.2359 14.6915 12.7716 14.1858 13.4531V13.4573ZM14.7686 11.8502L15.9558 10.7316L16.1658 9.6002L14.9186 10.7573L13.7315 9.48877L13.5172 10.4573L14.7686 11.8502ZM12.5915 14.8116L12.3772 15.7973C13.1872 15.7802 14.0486 15.8059 14.9658 15.9045L15.1372 14.9831C14.2935 14.8686 13.4429 14.8114 12.5915 14.8116Z" fill="#5EA4D4"/>
<path d="M18.1714 10.4827L17.9229 11.4041C18.5014 11.2327 19.1229 11.2027 19.7657 11.3912L19.8643 10.8427C19.3536 10.5392 18.7571 10.4127 18.1671 10.4827H18.1714Z" fill="#80478F"/>
<path d="M17.5372 15.4972C17.5372 15.4972 17.2886 15.4201 16.8686 15.3086L16.6458 16.1529C17.34 16.2901 18.0429 16.4786 18.7629 16.7015C18.7629 16.7015 17.6743 14.6143 17.9229 11.3872L17.2029 14.0529C17.28 14.5244 17.3872 15.0086 17.5372 15.4972Z" fill="#80478F"/>
<path d="M20.9999 12.0258C20.9999 12.0258 20.6656 11.2929 19.8727 10.8301L19.7742 11.3786C20.1727 11.5029 20.5799 11.7129 20.9999 12.0215V12.0258Z" fill="#59438F"/>
<path d="M17.5115 9.24023C17.5115 9.24023 17.2887 9.86166 17.1558 10.8817C16.7572 11.0959 16.2644 11.3917 15.7415 11.8245L15.5358 12.9345C15.9558 12.5102 16.4872 12.0774 17.0787 11.7517C17.0397 12.5255 17.0828 13.3012 17.2073 14.0659L18.1672 10.4831C18.1201 10.4831 18.0815 10.4959 18.0344 10.4959C18.2203 9.27199 18.5736 8.07939 19.0844 6.95166C19.0844 6.95166 17.413 8.4688 16.1915 9.60023L15.9772 10.7317L17.5115 9.24023ZM15.1372 14.9831L14.9658 15.9045C15.5101 15.9688 16.0672 16.0545 16.6372 16.1659L16.8601 15.3217C16.4487 15.2102 15.8572 15.0859 15.1372 14.9831Z" fill="#D42C78"/>
</g>
<defs>
<linearGradient id="paint0_linear_31_21067" x1="4.46571" y1="4.16143" x2="29.2071" y2="32.58" gradientUnits="userSpaceOnUse">
<stop stop-color="#1A1E21"/>
<stop offset="1" stop-color="#06060A"/>
</linearGradient>
<clipPath id="clip0_31_21067">
<rect width="24" height="24" fill="white"/>
</clipPath>
</defs>
</svg>

<svg xmlns="http://www.w3.org/2000/svg" width="24" height="24" fill="none" viewBox="0 0 24 24"><g clip-path="url(#a)"><path fill="url(#b)" d="M0 0h24v24H0z"/><path fill="#59438F" d="M4.714 6.938s.36.832.669 2.143l.42-1.135z"/><path fill="#80478F" d="m5.803 7.946-.42 1.131a15 15 0 0 1 .386 3.729l.728-2.122c-.051-.411-.098-.848-.171-1.307l.467.446.248-.72z"/><path fill="#D42C78" d="M7.337 11.34s.48 2.76-.668 5.374c0 0 .137-.051.394-.128l1.363-4.2a9 9 0 0 1-1.089-1.046M7.03 9.077l-.249.733 1.903 1.779.248-.759zM4.97 16.676s2.156-.172 1.513-6.005l-.728 2.126c-.043 1.243-.262 2.563-.78 3.879z"/><path fill="#DEB343" d="m10.911 10.706-.484.634s.163.189.433.463l.197-.934a2 2 0 0 1-.146-.163M11.43 9.2l.373-1.74L8.97 10.87l-.039-.039-.248.759.287.261zm-3.437 6.283s.321-1.26.223-2.301l1.885 1.191s.09-.047.24-.163l.283-1.328c-.158.128-.321.261-.506.386 0 0-.728-.138-1.692-.883l-1.363 4.2a17.4 17.4 0 0 1 2.884-.605l.219-.998c-.738.103-1.465.271-2.173.501"/><path fill="#81BA5A" d="m11.914 8.679 1.603 1.778.214-.968-1.92-2.028H11.8l-.37 1.74.48-.522zm.947 4.89.172-.81c-.159-.125-.343-.288-.557-.459.274-.287.574-.621.87-.986v-.021l-.506-.622s-.334.446-.951 1.072q-.425-.422-.832-.862l-.197.93.471.472c-.214.201-.458.403-.707.613l-.283 1.328c.3-.21.879-.655 1.608-1.38q.445.375.912.725m-2.695 1.405-.219.995a21 21 0 0 1 2.434-.189l.215-.981c-.772 0-1.586.047-2.43.171z"/><path fill="#5EA4D4" d="M14.186 13.457s-.356-.077-1.149-.698l-.171.81c.48.343.986.656 1.47.844 0 0 .458-.72 1.213-1.479l.21-1.11a8.6 8.6 0 0 0-1.573 1.63zm.583-1.607 1.187-1.118.21-1.132-1.247 1.157-1.187-1.268-.215.968zm-2.177 2.962-.215.985c.81-.017 1.672.009 2.589.107l.171-.92a19 19 0 0 0-2.546-.172"/><path fill="#80478F" d="m18.171 10.483-.248.921a3.2 3.2 0 0 1 1.843-.013l.098-.548a2.7 2.7 0 0 0-1.697-.36z"/><path fill="#80478F" d="M17.537 15.497s-.248-.077-.668-.188l-.223.844c.694.137 1.397.326 2.117.549 0 0-1.089-2.088-.84-5.315l-.72 2.666c.077.471.184.956.334 1.444"/><path fill="#59438F" d="M21 12.026s-.334-.733-1.127-1.196l-.099.549c.399.124.806.334 1.226.643z"/><path fill="#D42C78" d="M17.512 9.24s-.223.622-.356 1.642c-.399.214-.892.51-1.414.943l-.206 1.11c.42-.425.951-.858 1.543-1.183-.04.773.004 1.55.128 2.314l.96-3.583c-.047 0-.086.013-.133.013.186-1.224.54-2.417 1.05-3.544 0 0-1.671 1.517-2.892 2.648l-.215 1.132zm-2.375 5.743-.171.922q.816.095 1.671.26l.223-.843a15 15 0 0 0-1.723-.339"/></g><defs><linearGradient id="b" x1="4.466" x2="29.207" y1="4.161" y2="32.58" gradientUnits="userSpaceOnUse"><stop stop-color="#1A1E21"/><stop offset="1" stop-color="#06060A"/></linearGradient><clipPath id="a"><path fill="#fff" d="M0 0h24v24H0z"/></clipPath></defs></svg>
